X: 1
T: T\'ir na n\'Og
T: Skye Fisher's Song
C: Trad.
O: Ireland, Scotland
R: air
Z: 2013 John Chambers <jc:trillian.mit.edu> 2013-12-1
M: C
L: 1/4
K: Dm
[|\
| "Dm"A>G A<D | DE A>G |AD "C"(3DCE | "Dm"D4 \
| "Dm"A<A dc | A>G A<D | D>D FD | "Am"{F}E4 |
| "Dm"A<A dc | A>G A<D | D>D FD | "Am"{F}E4 \
| "Dm"[GG,][AA,] [dD][eE] | [aA]>[gG] [fF][dD]- | [dD][AA,] "Gm"(3[AA,][GG,][BB,] | "Dm"[A4A,4] |]
